svgs/light/arrows-to-dotted-line.svg

<svg xmlns="http://www.w3.org/2000/svg" viewBox="0 0 448 512"><!--! Font Awesome Pro 6.3.0 by @fontawesome - https://fontawesome.com License - https://fontawesome.com/license (Commercial License) Copyright 2023 Fonticons, Inc. --><path d="M200 256c0 13.25 10.74 24 24 24S248 269.3 248 256c0-13.26-10.74-24-24-24S200 242.7 200 256zM152 256c0-13.26-10.74-24-24-24S104 242.7 104 256c0 13.25 10.74 24 24 24S152 269.3 152 256zM32 232C18.74 232 8 242.7 8 256c0 13.25 10.74 24 24 24S56 269.3 56 256C56 242.7 45.26 232 32 232zM416 232c-13.26 0-24 10.74-24 24c0 13.25 10.74 24 24 24S440 269.3 440 256C440 242.7 429.3 232 416 232zM320 232c-13.26 0-24 10.74-24 24c0 13.25 10.74 24 24 24S344 269.3 344 256C344 242.7 333.3 232 320 232zM212.7 187.3C214.4 189 218.3 192 224 192s9.609-2.98 11.33-4.707l79.98-79.98C318.4 104.2 320 100.1 320 96c0-8.527-6.865-16-16-16c-4.094 0-8.188 1.562-11.31 4.688L240 137.4V16C240 7.156 232.8 0 224 0S208 7.156 208 16v121.4L155.3 84.69C152.2 81.56 148.1 80 144 80C134.9 80 128 87.47 128 96c0 4.094 1.562 8.188 4.688 11.31L212.7 187.3zM235.3 324.7C231.3 320.7 226.5 320 224 320s-7.298 .6529-11.33 4.697l-79.98 79.98C129.6 407.8 128 411.9 128 416c0 8.527 6.865 16 16 16c4.094 0 8.188-1.562 11.31-4.688L208 374.6V496c0 8.844 7.156 16 16 16s16-7.156 16-16v-121.4l52.69 52.69C295.8 430.4 299.9 432 304 432c9.139 0 16-7.473 16-16c0-4.094-1.562-8.188-4.688-11.31L235.3 324.7z"/></svg>

<svg xmlns="http://www.w3.org/2000/svg" viewBox="0 0 448 512"><!-- Font Awesome Pro 6.0.0-alpha2 by @fontawesome - https://fontawesome.com License - https://fontawesome.com/license (Commercial License) --><path d="M200 256C200 269.25 210.744 280 224 280S248 269.25 248 256C248 242.742 237.256 232 224 232S200 242.742 200 256ZM152 256C152 242.742 141.256 232 128 232S104 242.742 104 256C104 269.25 114.744 280 128 280S152 269.25 152 256ZM32 232C18.744 232 8 242.742 8 256C8 269.25 18.744 280 32 280S56 269.25 56 256C56 242.742 45.256 232 32 232ZM416 232C402.744 232 392 242.742 392 256C392 269.25 402.744 280 416 280S440 269.25 440 256C440 242.742 429.256 232 416 232ZM320 232C306.744 232 296 242.742 296 256C296 269.25 306.744 280 320 280S344 269.25 344 256C344 242.742 333.256 232 320 232ZM212.668 187.293C214.391 189.02 218.324 192 224 192S233.609 189.02 235.332 187.293L315.312 107.313C318.438 104.188 320 100.094 320 96C320 87.473 313.135 80 304 80C299.906 80 295.812 81.562 292.688 84.688L240 137.375V16C240 7.156 232.844 0 224 0S208 7.156 208 16V137.375L155.312 84.688C152.188 81.562 148.094 80 144 80C134.861 80 128 87.473 128 96C128 100.094 129.562 104.188 132.688 107.312L212.668 187.293ZM235.332 324.707C231.298 320.663 226.456 320.018 224 320.018S216.702 320.663 212.668 324.707L132.688 404.687C129.562 407.812 128 411.906 128 416C128 424.527 134.865 432 144 432C148.094 432 152.188 430.438 155.312 427.312L208 374.625V496C208 504.844 215.156 512 224 512S240 504.844 240 496V374.625L292.688 427.312C295.812 430.438 299.906 432 304 432C313.139 432 320 424.527 320 416C320 411.906 318.438 407.812 315.312 404.688L235.332 324.707Z"/></svg>
